public/instant.svg

<svg width="70" height="70" viewBox="0 0 70 70" fill="none" xmlns="http://www.w3.org/2000/svg">
<path d="M60 0H10C4.47715 0 0 4.47715 0 10V60C0 65.5229 4.47715 70 10 70H60C65.5229 70 70 65.5229 70 60V10C70 4.47715 65.5229 0 60 0Z" fill="#F3FCF7"/>
<path d="M20 35C20 26.7157 26.7157 20 35 20C43.2843 20 50 26.7157 50 35C50 43.2843 43.2843 50 35 50C26.7157 50 20 43.2843 20 35Z" fill="#3A76BF"/>
<path d="M35 35H34C34 35.2652 34.1054 35.5196 34.2929 35.7071L35 35ZM35 49C27.268 49 21 42.732 21 35H19C19 43.8366 26.1634 51 35 51V49ZM49 35C49 42.732 42.732 49 35 49V51C43.8366 51 51 43.8366 51 35H49ZM35 21C42.732 21 49 27.268 49 35H51C51 26.1634 43.8366 19 35 19V21ZM35 19C26.1634 19 19 26.1634 19 35H21C21 27.268 27.268 21 35 21V19ZM34 25.3571V35H36V25.3571H34ZM34.2929 35.7071L40.7215 42.1357L42.1357 40.7215L35.7071 34.2929L34.2929 35.7071Z" fill="#F3FCF7"/>
</svg>

<svg width="70" height="70" fill="none" xmlns="http://www.w3.org/2000/svg"><path d="M60 0H10C4.477 0 0 4.477 0 10v50c0 5.523 4.477 10 10 10h50c5.523 0 10-4.477 10-10V10c0-5.523-4.477-10-10-10z" fill="#F3FCF7"/><path d="M20 35c0-8.284 6.716-15 15-15 8.284 0 15 6.716 15 15 0 8.284-6.716 15-15 15-8.284 0-15-6.716-15-15z" fill="#3A76BF"/><path d="M35 35h-1a1 1 0 0 0 .293.707L35 35zm0 14c-7.732 0-14-6.268-14-14h-2c0 8.837 7.163 16 16 16v-2zm14-14c0 7.732-6.268 14-14 14v2c8.837 0 16-7.163 16-16h-2zM35 21c7.732 0 14 6.268 14 14h2c0-8.837-7.163-16-16-16v2zm0-2c-8.837 0-16 7.163-16 16h2c0-7.732 6.268-14 14-14v-2zm-1 6.357V35h2v-9.643h-2zm.293 10.35 6.428 6.429 1.415-1.415-6.429-6.428-1.414 1.414z" fill="#F3FCF7"/></svg>
